icon/hi/database-outline.svg

<svg viewBox="0 0 24 24" fill="none" xmlns="http://www.w3.org/2000/svg" height="1em" width="1em">
  <path d="M4 7V17C4 19.2091 7.58172 21 12 21C16.4183 21 20 19.2091 20 17V7M4 7C4 9.20914 7.58172 11 12 11C16.4183 11 20 9.20914 20 7M4 7C4 4.79086 7.58172 3 12 3C16.4183 3 20 4.79086 20 7M20 12C20 14.2091 16.4183 16 12 16C7.58172 16 4 14.2091 4 12" stroke="#374151" stroke-width="2" stroke-linecap="round" stroke-linejoin="round"/>
</svg>

<svg width="24" height="24" fill="none" xmlns="http://www.w3.org/2000/svg"><path d="M4 7v10c0 2.21 3.582 4 8 4s8-1.79 8-4V7M4 7c0 2.21 3.582 4 8 4s8-1.79 8-4M4 7c0-2.21 3.582-4 8-4s8 1.79 8 4m0 5c0 2.21-3.582 4-8 4s-8-1.79-8-4" stroke="#374151" stroke-width="2" stroke-linecap="round" stroke-linejoin="round"/></svg>
